!!!COM: Scriabin, Alexander
!!!OTL@@FR: Mazurka en ré dièse mineur
!!!OTL@@EN: Mazurka in D# Minor
!!!OPR@@FR: 10 Mazurkas
!!!OPR@@EN: 10 Mazurkas
!!!OPS: 3
!!!ONM: 5
!!!OMD: Doloroso
!!!ODT: 1888–1889
!!!AGN: Mazurka
**kern	**kern	**dynam
*staff2	*staff1	*staff1/2
*Ipiano	*Ipiano	*
*clefF4	*clefG2	*
*k[f#c#g#d#a#e#]	*k[f#c#g#d#a#e#]	*
*d#:	*d#:	*
*M3/4	*M3/4	*
4r	4a#	pp
=1	=1	=1
2.r	8g#L	.
.	8a#	.
.	8cc#	.
.	8b	.
.	8d#	.
.	8e#J	.
=2	=2	=2
*	*^	*
8G##XL	4r	4f#	.
8A#	.	.	.
8c#	[2d#	4d#	.
8B	.	.	.
8D#	.	4b	.
8E#J	.	.	.
=3	=3	=3	=3
*^	*	*	*
4F#	4r	2d#]	8a#L	<
.	.	.	8b	(
4F##X	4r	.	8dd#	(
.	.	.	8cc#	(
[4D#	[4en	[4c# [4f##X	8b	[
.	.	.	8a#J	.
=4	=4	=4	=4	=4
4D#]	4e]	4c#] 4f##]	4a#	>
4G#	4d#	4B	4g#	]
4rAA	4rc	4r	4dd#	.
*	*	*v	*v	*
*v	*v	*	*
=5	=5	=5
2.r	8cc#L	.
.	8dd#	.
.	8ff#	.
.	8een	.
.	8g#	.
.	8a#J	.
!!LO:LB:g=original
=6	=6	=6
*	*^	*
8c##XL	4r	4b	.
8d#	.	.	.
8f#	[2g#	4g#	.
8en	.	.	.
8G#	.	4een	.
8A#J	.	.	.
=7	=7	=7	=7
*^	*	*	*
2B	4r	2g#]	4dd#	.
.	4r	.	8cc##XL	.
.	.	.	8dd#J	.
[4B	[4e#X	[4g##X	8.ee#XL	.
.	.	.	16dd#Jk	.
=8	=8	=8	=8	=8
4B]	4e#]	4g##]	4dd#	.
4A#	4e#	4a#	4cc##X	.
4A#	4en	4g#X	[4cc#X	.
*	*	*v	*v	*
=9	=9	=9	=9
4D#	4r	8cc#L]	.
.	.	8dd#	.
4A#	2g#	8ff#	.
.	.	8een	.
4c#	.	8g#	.
.	.	8a#J	.
=10	=10	=10	=10
*	*	*^	*
2.D#	4r	8g#L	2.b	.
.	.	8f##X	.	.
.	2B 2en	8g#	.	.
.	.	8f#X	.	.
.	.	8g#	.	.
.	.	8enJ	.	.
=11	=11	=11	=11	=11
2.D# 2.A#	8enL	4g#	8cc#L	.
.	8d#J	.	8dd#	.
.	4c#	2f##X	8een	.
.	.	.	8f##	.
.	4a#	.	8dd#	.
.	.	.	8cc##XJ	.
*	*	*v	*v	*
*v	*v	*	*
!!LO:LB:g=original
=12	=12	=12
4GG#	8cc#XL	.
.	8en	.
4C# [4B 4en	8b	.
.	8a#J	.
8D# 8B] 8d#	4g#	.
8FF#	.	.
=13	=13	=13
4EE#X	8g#L	.
.	8a#	.
4D# 4B 4g#	8b	.
.	8d#	.
4r	8a#	.
.	8g#J	.
=14	=14	=14
4FF#	8f#L	.
.	8g#	.
4D# 4B 4f#	8a#	.
.	8d#	.
4r	8g#	.
.	8f#J	.
=15	=15	=15
4GG#	8e#L	.
.	8f#	.
4E# 4B	8g#	.
.	8f#	.
4GG##X 4F# 4B	8e#	.
.	8d#J	.
=16	=16	=16
*^	*	*
2AA#	4F# 4d#	8.cc#L	.
.	.	16bJk	.
.	4E# 4c##X	4a#	.
*v	*v	*	*
4r	4a#	.
=17	=17	=17
2.r	8g#L	.
.	8a#	.
.	8cc#	.
.	8b	.
.	8d#	.
.	8e#J	.
!!LO:LB:g=original
=18	=18	=18
*	*^	*
8G##XL	4r	4f#	.
8A#	.	.	.
8c#	[2d#	4d#	.
8B	.	.	.
8D#	.	4b	.
8E#J	.	.	.
=19	=19	=19	=19
*^	*	*	*
4F#	4r	2d#]	8a#L	<
.	.	.	8b	(
4F##X	4r	.	8dd#	(
.	.	.	8cc#	(
[4D#	[4en	[4c# [4f##X	8b	[
.	.	.	8a#J	.
=20	=20	=20	=20	=20
4D#]	4e]	4c#] 4f##]	4a#	>
4G#	4d#	4B	4g#	]
4rAA	4rc	4r	4dd#	.
*	*	*v	*v	*
*v	*v	*	*
=21	=21	=21
2.r	8cc#L	.
.	8dd#	.
.	8ff#	.
.	8een	.
.	8g#	.
.	8a#J	.
=22	=22	=22
*	*^	*
8c##XL	4r	4b	.
8d#	.	.	.
8f#	[2g#	4g#	.
8en	.	.	.
8G#	.	4een	.
8A#J	.	.	.
=23	=23	=23	=23
2B	2g#]	4dd#	.
.	.	8cc##XL	.
.	.	8dd#J	.
4B#X	4g# 4dd#	8.gg#L	.
.	.	16ff#Jk	.
!!LO:LB:g=original
=24	=24	=24	=24
2c#	2g# 2bn	4ff#	.
.	.	4ee#	.
4c#	4gn 4b	[4een	pp
*	*v	*v	*
=25	=25	=25
*^	*	*
4F#	4r	8ee]L	.
.	.	8ff#	.
4c#	2b	8aan	.
.	.	8ggn	.
4en	.	8b	.
.	.	8cc#J	.
=26	=26	=26	=26
*	*	*^	*
2.F#	4r	8bL	2.ddn	.
.	.	8a#X	.	.
.	2dn 2gn	8b	.	.
.	.	8an	.	.
.	.	8b	.	.
.	.	8gnJ	.	.
=27	=27	=27	=27	=27
2.F# 2.c#	8gnL	4b	8eenL	.
.	8f#J	.	8ff#	.
.	4en	2a#X	8ggn	.
.	.	.	8a#	.
*clefG2	*clefG2	*	*	*
.	4cc#	.	8ff#	.
.	.	.	8ee#XJ	.
*	*	*v	*v	*
*v	*v	*	*
*clefF4	*	*
=28	=28	=28
4BB	8een/L	.
.	8f##X	.
4F##X [4d# 4f##X	8dd#	.
.	8cc#	.
8G# 8d#] 8g#	8b	.
8FF#X	[8g#J	.
=29	=29	=29
4EE#X	8g#L]	.
.	8a#	.
4D# 4B 4g#	8b	.
.	8d#	.
8r	8a#	.
8EE#	8g#J	.
!!LO:LB:g=original
=30	=30	=30
4FF#	8f#L	.
.	8g#	.
4D# 4B 4f#	8a#	.
.	8d#	.
8r	8g#	.
8FF#	8f#J	.
=31	=31	=31
4GG#	8e#L	.
.	8f#	.
4E# 4B	8g#	.
.	8f#	.
4GG##X 4F# 4B	8e#	.
.	8d#J	.
=32	=32	=32
*	*^	*
[4AA#	4G# 4c##X	8f#L	.
.	.	8e#J	.
*	*v	*v	*
2DD# 2AA#]	4F# 4d#	.
*	*clefF4	*
.	4A#	.
=33	=33	=33
*	*^	*
4DD# 4AA#	8A#L	4B	p
.	8G#	.	.
2DD# 2AA#	8F#	4B#X	.
.	8A#	.	.
.	8E#	4c##X	<
.	8A#J	.	.
=34	=34	=34	=34
4DD# 4GG# 4G#	8BnL	4d#	.
.	8F#	.	.
2DD# 2GG# 2G#	8E#	4e#	.
.	8B	.	.
.	8D#	4f#	.
.	8A#J	.	.
!!LO:LB:g=original
=35	=35	=35	=35
4DD# 4GG##X 4G##X	8BL	4f#	.
.	8D#	.	.
2DD# 2GG## 2G##	8E#	4e#	.
.	8B	.	.
.	8F#	4d#	.
.	8BJ	.	.
=36	=36	=36	=36
2DD# 2AA# 2A#	2F#	12d#L	f
.	.	12c##X	.
.	.	12d#J	.
.	.	4a#	.
*	*clefG2	*clefG2	*
4r	4r	4d#	p
=37	=37	=37	=37
4DD# 4D#	8d#L	4en	.
.	8c#X	.	.
2DD# 2D#	8B	4e#X	<
.	8d#	.	.
.	8A#	4f##X	.
.	8d#J	.	.
=38	=38	=38	=38
*^	*	*	*
4GG# 4B	4C##X	8enL	4g#	.
.	.	8B	.	.
2GG# 2B	4.C##	8A#	4a#	.
.	.	8e	.	.
.	.	8G#	4b	.
.	8D#	8d#J	.	.
*	*	*v	*v	*
*v	*v	*	*
=39	=39	=39
2.AA# 2.G# 2.c##X	8c##XL	.
.	8a#	.
.	8b	.
.	8B	>
.	8f#	.
.	8e#XJ	.
=40	=40	=40
*^	*^	*
2.DD#	2GG##X	2.F#	8.d#L	>
.	.	.	16c#XJk	)
.	.	.	4B	)
*	*	*clefF4	*clefF4	*
.	4AA#	.	4A#\	]
*v	*v	*	*	*
!!LO:LB:g=original
=41	=41	=41	=41
4DD# 4AA#	8A#L	4B	.
.	8G#	.	.
2DD# 2AA#	8F#	4B#X	<
.	8A#	.	.
.	8E#	4c##X	.
.	8A#J	.	.
=42	=42	=42	=42
4DD# 4GG# 4G#	8BnL	4d#	.
.	8F#	.	.
2DD# 2GG# 2G#	8E#	4e#	.
.	8B	.	.
.	8D#	4f#	.
.	8A#J	.	.
=43	=43	=43	=43
4DD# 4GG##X 4G##X	8BL	4f#	.
.	8D#	.	.
2DD# 2GG## 2G##	8E#	4e#	.
.	8B	.	.
.	8F#	4d#	.
.	8BJ	.	.
=44	=44	=44	=44
2DD# 2AA# 2A#	2F#	12d#L	f
.	.	12c##X	.
.	.	12d#J	.
.	.	4a#	.
*	*clefG2	*clefG2	*
4r	4r	4d#	p
=45	=45	=45	=45
4DD# 4D#	8d#L	4en	.
.	8c#X	.	.
2DD# 2D#	8B	4e#X	<
.	8d#	.	.
.	8A#	4f##X	.
.	8d#J	.	.
!!LO:LB:g=original
=46	=46	=46	=46
*^	*	*^	*
4GG# 4B	4C##X	8en\L	4ryy	4g#	.
.	.	8B	.	.	.
2GG# 2B	4.C##	8A#	4ryy	4a#	.
.	.	8e	.	.	.
.	.	8G#	4g#/	4b	.
.	8D#	8d#J	.	.	.
*	*	*	*v	*v	*
*v	*v	*	*	*
=47	=47	=47	=47
4GG# 4G#	8g#L	4an	.
.	8f#	.	.
2GG# 2G#	8en	4a#X	<
.	8g#	.	.
.	8d#	4b#X	.
.	8g#J	.	.
=48	=48	=48	=48
*^	*	*	*
4C# 4en	4F##X	8anL	4cc#	.
.	.	8en	.	.
2C# 2e	4.F##	8d#	4dd#	.
.	.	8a	.	.
.	.	8c#	4een	.
.	8G#	8g#J	.	.
*	*	*v	*v	*
*v	*v	*	*
=49	=49	=49
2.D# 2.B 2.g#	8dd#L	f
.	8f##X	.
.	8g#	>
.	8a#X	.
.	8b	.
.	8cc#J	.
=50	=50	=50
4D# 4c#X 4f##X	8cc##XL	.
.	8dd#	.
4r	8ff#X	.
.	8een	.
4r	8dd#	.
.	8bJ	.
*kcancel	*kcancel	*
!!LO:LB:g=original
=51||	=51||	=51||
*k[f#c#g#d#a#]	*k[f#c#g#d#a#]	*
4r	2.g#	p
*^	*	*
4D#	2B	.	.
4C#	.	.	.
*v	*v	*	*
=52	=52	=52
4r	[2.d#	.
*^	*	*
4C#	2G#	.	.
4BB	.	.	.
*v	*v	*	*
=53	=53	=53
*	*^	*
4r	2.d#]	[2.cc#	.
*^	*	*	*
4BB	2G#	.	.	.
4AA#	.	.	.	.
*v	*v	*	*	*
=54	=54	=54	=54
4r	[2.d#	4cc#]	.
*^	*	*	*
4D#	2F##X	.	4b	.
4C#	.	.	4a#	.
*v	*v	*	*	*
=55	=55	=55	=55
4r	2.d#]	[2.dd#	.
*^	*	*	*
4C#	2G#	.	.	.
4BB	.	.	.	.
*v	*v	*	*	*
=56	=56	=56	=56
4r	[2.d#	4dd#]	.
*^	*	*	*
4AA#	2G#	.	4cc#	.
4GG#	.	.	4b	.
*v	*v	*	*	*
=57	=57	=57	=57
4r	2.d#_	2.b	.
*^	*	*	*
2D#	4G#	.	.	.
.	4E#X	.	.	.
*v	*v	*	*	*
=58	=58	=58	=58
4r	2.d#]	2.a#	.
*^	*	*	*
2D#	4F##X	.	.	.
.	4DD#	.	.	.
*	*	*v	*v	*
*v	*v	*	*
!!LO:LB:g=original
=59	=59	=59
4r	2.g#	.
*^	*	*
4D#	2B	.	.
4C#	.	.	.
*v	*v	*	*
=60	=60	=60
4r	[2.d#	.
*^	*	*
4C#	2G#	.	.
4BB	.	.	.
*v	*v	*	*
=61	=61	=61
*	*^	*
4r	2.d#]	[2.cc#	.
*^	*	*	*
4BB	2G#	.	.	.
4AA#	.	.	.	.
*v	*v	*	*	*
=62	=62	=62	=62
4r	[2.d#	4cc#]	.
*^	*	*	*
4D#	2F##X	.	4b	.
4C#	.	.	4a#	.
*v	*v	*	*	*
=63	=63	=63	=63
4r	2.d#]	2.dd#	.
*^	*	*	*
4C#	2G#	.	.	.
4BB#X	.	.	.	.
*v	*v	*	*	*
=64	=64	=64	=64
8GG#L	2.f# 2.b#X	4r	.
8G#	.	.	.
8An	.	4ee	.
8D#J	.	.	.
4f#	.	4dd#	.
=65	=65	=65	=65
8C#L	2.e	4r	.
8G#	.	.	.
8An	.	4dd#	.
8EJ	.	.	.
4e	.	4cc#	.
!!LO:LB:g=original
=66	=66	=66	=66
8FF#\L	2.e 2.a#X	4r	.
8F#	.	.	.
8Gn	.	4dd#	.
8C#J	.	.	.
4e	.	4cc#	.
=67	=67	=67	=67
8BBL	2.d#	4r	.
8F##X	.	.	.
8G#	.	4cc#	.
8D#J	.	.	.
4d#	.	4b	.
=68	=68	=68	=68
8C#L	2.e	4r	.
8G#	.	.	.
8An	.	4b	.
8EJ	.	.	.
4e	.	4an	.
=69	=69	=69	=69
8C##XL	2.e	4r	.
8A#X	.	.	.
8B	.	4an	.
8EJ	.	.	.
4e	.	4g#	.
*	*v	*v	*
=70	=70	=70
*^	*	*
2.D# 2.B	4r	8g#L	.
.	.	8f##X	.
.	4r	8g#	.
.	.	8a#X	.
.	4g#	8b	.
.	.	8cc#J	.
*v	*v	*	*
=71	=71	=71
4D# 4c#X 4f##X	8cc##XL	.
.	8dd#	.
4r	8ff#X	.
.	8ee	.
4r	8dd#	.
.	8bJ	.
!!LO:LB:g=original
=72	=72	=72
4r	2.g#	.
*^	*	*
4D#	2B	.	.
4C#	.	.	.
*v	*v	*	*
=73	=73	=73
4r	[2.d#	.
*^	*	*
4C#	2G#	.	.
4BB	.	.	.
*v	*v	*	*
=74	=74	=74
*	*^	*
4r	2.d#]	[2.cc#	.
*^	*	*	*
4BB	2G#	.	.	.
4AA#	.	.	.	.
*v	*v	*	*	*
=75	=75	=75	=75
4r	[2.d#	4cc#]	.
*^	*	*	*
4D#	2F##X	.	4b	.
4C#	.	.	4a#	.
*v	*v	*	*	*
=76	=76	=76	=76
4r	2.d#]	[2.dd#	.
*^	*	*	*
4C#	2G#	.	.	.
4BB	.	.	.	.
*v	*v	*	*	*
=77	=77	=77	=77
4r	[2.d#	4dd#]	.
*^	*	*	*
4AA#	2G#	.	4cc#	.
4GG#	.	.	4b	.
*v	*v	*	*	*
=78	=78	=78	=78
4r	2.d#_	2.b	.
*^	*	*	*
2D#	4G#	.	.	.
.	4E#X	.	.	.
*v	*v	*	*	*
=79	=79	=79	=79
4r	2.d#]	2.a#	.
*^	*	*	*
2D#	4F##X	.	.	.
.	4DD#	.	.	.
*	*	*v	*v	*
*v	*v	*	*
!!LO:LB:g=original
=80	=80	=80
4r	2.g#	.
*^	*	*
4D#	2B	.	.
4C#	.	.	.
*v	*v	*	*
=81	=81	=81
4r	[2.d#	.
*^	*	*
4C#	2G#	.	.
4BB	.	.	.
*v	*v	*	*
=82	=82	=82
*	*^	*
4r	2.d#]	[2.cc#	.
*^	*	*	*
4BB	2G#	.	.	.
4AA#	.	.	.	.
*v	*v	*	*	*
=83	=83	=83	=83
4r	[2.d#	4cc#]	.
*^	*	*	*
4D#	2F##X	.	4b	.
4C#	.	.	4a#	.
*v	*v	*	*	*
=84	=84	=84	=84
4r	2.d#]	2.dd#	.
*^	*	*	*
4C#	2G#	.	.	.
4BB#X	.	.	.	.
*v	*v	*	*	*
=85	=85	=85	=85
8GG#L	2.f# 2.b#X	4r	.
8G#	.	.	.
8An	.	4ee	.
8D#J	.	.	.
4f#	.	4dd#	.
=86	=86	=86	=86
8C#L	2.e	4r	.
8G#	.	.	.
8An	.	4dd#	.
8EJ	.	.	.
4e	.	4cc#	.
!!LO:LB:g=original
=87	=87	=87	=87
8FF#\L	2.e 2.a#X	4r	.
8F#	.	.	.
8Gn	.	4dd#	.
8C#J	.	.	.
4e	.	4cc#	.
=88	=88	=88	=88
8BBL	2.d#	4r	.
8F##X	.	.	.
8G#	.	4cc#	.
8D#J	.	.	.
4d#	.	4b	.
=89	=89	=89	=89
8DD#L	2.c# 2.f##X	4r	.
8D#	.	.	.
8E	.	4b	.
8AA#J	.	.	.
4c#	.	4a#	.
=90	=90	=90	=90
8GG#L	2.B	4r	.
8D#	.	.	.
8E	.	4a#	.
8BBJ	.	.	.
4B	.	4g#	.
=91	=91	=91	=91
2.AAA# 2.AA#	2.G# 2.c##X	4r	.
.	.	4f#	.
.	.	4e#X	.
*	*v	*v	*
=92	=92	=92
2.r	4a#	.
.	4.b	.
.	8a#X	p
!!LO:LB:g=original
=93||	=93||	=93||
*k[f#c#g#d#a#e#]	*k[f#c#g#d#a#e#]	*
2.r	8g#L	.
.	8a#	.
.	8cc#	.
.	8b	.
.	8d#	.
.	8e#J	.
=94	=94	=94
*	*^	*
8G##XL	4r	4f#	.
8A#	.	.	.
8c#	[2d#	4d#	.
8B	.	.	.
8D#	.	4b	.
8E#J	.	.	.
=95	=95	=95	=95
*^	*	*	*
4F#	4r	2d#]	8a#L	<
.	.	.	8b	(
4F##X	4r	.	8dd#	(
.	.	.	8cc#	(
[4D#	[4en	[4c# [4f##X	8b	(
.	.	.	8a#J	[
=96	=96	=96	=96	=96
4D#]	4e]	4c#] 4f##]	4a#	>
4G#	4d#	4B	4g#	]
4rAA	4rc	4r	4dd#	.
*	*	*v	*v	*
*v	*v	*	*
=97	=97	=97
2.r	8cc#L	.
.	8dd#	.
.	8ff#	.
.	8een	.
.	8g#	.
.	8a#J	.
!!LO:LB:g=original
=98	=98	=98
*	*^	*
8c##XL	4r	4b	.
8d#	.	.	.
8f#	[2g#	4g#	.
8en	.	.	.
8G#	.	4een	.
8A#J	.	.	.
=99	=99	=99	=99
*^	*	*	*
2B	4r	2g#]	4dd#	.
.	4r	.	8cc##XL	.
.	.	.	8dd#J	.
[4B	[4e#X	[4g##X	8.ee#XL	.
.	.	.	16dd#Jk	.
=100	=100	=100	=100	=100
4B]	4e#]	4g##]	4dd#	.
4A#	4e#	4a#	4cc##X	.
4A#	4en	4g#X	[4cc#X	.
*	*	*v	*v	*
=101	=101	=101	=101
4D#	4r	8cc#L]	.
.	.	8dd#	.
4A#	2g#	8ff#	.
.	.	8een	.
4c#	.	8g#	.
.	.	8a#J	.
=102	=102	=102	=102
*	*	*^	*
2.D#	4r	8g#L	2.b	.
.	.	8f##X	.	.
.	2B 2en	8g#	.	.
.	.	8f#X	.	.
.	.	8g#	.	.
.	.	8enJ	.	.
=103	=103	=103	=103	=103
2.D# 2.A#	8enL	4g#	8cc#L	.
.	8d#J	.	8dd#	.
.	4c#	2f##X	8een	.
.	.	.	8f##	.
.	4a#	.	8dd#	.
.	.	.	8cc##XJ	.
*	*	*v	*v	*
*v	*v	*	*
!!LO:LB:g=original
=104	=104	=104
4GG#	8cc#XL	.
.	8en	.
4C# [4B 4en	8b	.
.	8a#J	.
8D# 8B] 8d#	4g#	.
8FF#X	.	.
=105	=105	=105
4EE#X	8g#L	.
.	8a#	.
4D# 4B 4g#	8b	.
.	8d#	.
4r	8a#	.
.	8g#J	.
=106	=106	=106
4FF#	8f#L	.
.	8g#	.
4D# 4B 4f#	8a#	.
.	8d#	.
4r	8g#	.
.	8f#J	.
=107	=107	=107
4GG#	8e#L	.
.	8f#	.
4E# 4B	8g#	.
.	8f#	.
4GG##X 4F# 4B	8e#	.
.	8d#J	.
=108	=108	=108
*^	*	*
2AA#	4F# 4d#	8.cc#L	.
.	.	16bJk	.
.	4E# 4c##X	4a#	.
*v	*v	*	*
4r	4a#	.
=109	=109	=109
2.r	8g#L	.
.	8a#	.
.	8cc#	.
.	8b	.
.	8d#	.
.	8e#J	.
!!LO:LB:g=original
=110	=110	=110
*	*^	*
8G##XL	4r	4f#	.
8A#	.	.	.
8c#	[2d#	4d#	.
8B	.	.	.
8D#	.	4b	.
8E#J	.	.	.
=111	=111	=111	=111
*^	*	*	*
4F#	4r	2d#]	8a#L	<
.	.	.	8b	(
4F##X	4r	.	8dd#	(
.	.	.	8cc#	(
[4D#	[4en	[4c# [4f##X	8b	(
.	.	.	8a#J	[
=112	=112	=112	=112	=112
4D#]	4e]	4c#] 4f##]	4a#	>
4G#	4d#	4B	4g#	]
4r	4r	4r	4dd#	.
*	*	*v	*v	*
*v	*v	*	*
=113	=113	=113
2.r	8cc#L	.
.	8dd#	.
.	8ff#	.
.	8een	.
.	8g#	.
.	8a#J	.
=114	=114	=114
*	*^	*
8c##XL	4r	4b	.
8d#	.	.	.
8f#	[2g#	4g#	.
8en	.	.	.
8G#	.	4een	.
8A#J	.	.	.
=115	=115	=115	=115
2B	2g#]	4dd#	.
.	.	8cc##XL	.
.	.	8dd#J	.
4B#X	4g# 4dd#	8.gg#L	.
.	.	16ff#Jk	.
!!LO:LB:g=original
=116	=116	=116	=116
2c#	2g# 2bn	4ff#	.
.	.	4ee#	.
4c#	4gn 4b	[4een	pp
*	*v	*v	*
=117	=117	=117
*^	*	*
4F#	4r	8eeL]	.
.	.	8ff#	.
4c#	2b	8aan	.
.	.	8ggn	.
4en	.	8b	.
.	.	8cc#J	.
=118	=118	=118	=118
*	*	*^	*
2.F#	4r	8bL	2.ddn	.
.	.	8a#X	.	.
.	2dn 2gn	8b	.	.
.	.	8an	.	.
.	.	8b	.	.
.	.	8gnJ	.	.
=119	=119	=119	=119	=119
2.F# 2.c#	8gnL	4b	8eenL	.
.	8f#J	.	8ff#	.
.	4en	2a#X	8ggn	.
.	.	.	8a#	.
*clefG2	*clefG2	*	*	*
.	4cc#	.	8ff#	.
.	.	.	8ee#XJ	.
*	*	*v	*v	*
*v	*v	*	*
*clefF4	*	*
=120	=120	=120
4BB	8een/L	.
.	8f##X	.
4F##X [4d# 4f##X	8dd#	.
.	8cc#	.
8G# 8d#] 8g#	8b	.
8FF#X	[8g#J	.
=121	=121	=121
4EE#X	8g#L]	.
.	8a#	.
4D# 4B 4g#	8b	.
.	8d#	.
8r	8a#	.
8EE#	8g#J	.
!!LO:LB:g=original
=122	=122	=122
4FF#	8f#L	.
.	8g#	.
4D# 4B 4f#	8a#	.
.	8d#	.
8r	8g#	.
8FF#	8f#J	.
=123	=123	=123
4GG#	8e#L	.
.	8f#	.
4E# 4B	8g#	.
.	8f#	.
4GG##X 4F# 4B	8e#	.
.	8d#J	.
=124	=124	=124
*	*^	*
[4AA#	4G# 4c##X	8f#L	.
.	.	8e#J	.
*	*v	*v	*
2DD# 2AA#]	4F# 4d#	.
*	*clefF4	*
.	4A#	.
=125	=125	=125
*	*^	*
4DD# 4AA#	8A#L	4B	p
.	8G#	.	.
2DD# 2AA#	8F#	4B#X	.
.	8A#	.	.
.	8E#	4c##X	.
.	8A#J	.	.
=126	=126	=126	=126
4DD# 4GG# 4G#	8BnL	4d#	<
.	8F#	.	.
2DD# 2GG# 2G#	8E#	4e#	.
.	8B	.	.
.	8D#	4f#	.
.	8A#J	.	.
=127	=127	=127	=127
4DD# 4GG##X 4G##X	8BL	4f#	.
.	8D#	.	.
2DD# 2GG## 2G##	8E#	4e#	.
.	8B	.	.
.	8F#	4d#	.
.	8BJ	.	.
!!LO:LB:g=original
=128	=128	=128	=128
2DD# 2AA# 2A#	2F#	12d#L	.
.	.	12c##X	.
.	.	12d#J	.
.	.	4a#	.
*	*clefG2	*clefG2	*
4r	4r	4d#	.
=129	=129	=129	=129
4DD# 4D#	8d#L	4en	.
.	8c#X	.	.
2DD# 2D#	8B	4e#X	.
.	8d#	.	.
.	8A#	4f##X	.
.	8d#J	.	.
=130	=130	=130	=130
*^	*	*	*
4GG# 4B	4C##X	8enL	4g#	.
.	.	8B	.	.
2GG# 2B	4.C##	8A#	4a#	.
.	.	8e	.	.
.	.	8G#	4b	.
.	8D#	8d#J	.	.
*	*	*v	*v	*
*v	*v	*	*
=131	=131	=131
2.AA# 2.G# 2.c##X	8c##XL	>
.	8a#	)
.	8b	)
.	8B	)
.	8f#	)
.	8e#XJ	)
=132	=132	=132
*^	*^	*
2.DD#	2GG##X	2.F#	8.d#L	)
.	.	.	16c#XJk	)
.	.	.	4B	]
*	*	*clefF4	*clefF4	*
.	4AA#	.	4A#\	.
*v	*v	*	*	*
=133	=133	=133	=133
4DD# 4AA#	8A#L	4B	.
.	8G#	.	.
2DD# 2AA#	8F#	4B#X	.
.	8A#	.	.
.	8E#	4c##X	.
.	8A#J	.	.
!!LO:LB:g=original
=134	=134	=134	=134
4DD# 4GG# 4G#	8BnL	4d#	.
.	8F#	.	.
2DD# 2GG# 2G#	8E#	4e#	.
.	8B	.	.
.	8D#	4f#	.
.	8A#J	.	.
=135	=135	=135	=135
4DD# 4GG##X 4G##X	8BL	4f#	.
.	8D#	.	.
2DD# 2GG## 2G##	8E#	4e#	.
.	8B	.	.
.	8F#	4d#	.
.	8BJ	.	.
=136	=136	=136	=136
2DD# 2AA# 2A#	2F#	12d#L	.
.	.	12c##X	.
.	.	12d#J	.
.	.	4a#	.
*	*clefG2	*clefG2	*
4r	4r	4d#	.
=137	=137	=137	=137
4DD# 4D#	8d#L	4en	.
.	8c#X	.	.
2DD# 2D#	8B	4e#X	.
.	8d#	.	.
.	8A#	4f##X	.
.	8d#J	.	.
=138	=138	=138	=138
*^	*	*	*
4GG# 4B	4C##X	8enL	4g#	.
.	.	8B	.	.
2GG# 2B	4.C##	8A#	4a#	.
.	.	8e	.	.
.	.	8G#	4b	.
.	8D#	8d#J	.	.
*	*	*v	*v	*
*v	*v	*	*
!!LO:LB:g=original
=139	=139	=139
2.AA# 2.G# 2.c##X	8c##XL	.
.	8a#	.
.	8b	.
.	8B	.
.	8f#	.
.	8e#XJ	.
=140	=140	=140
*^	*^	*
2DD#	4GG##X	2F#	2d#	.
.	4AA#	.	.	.
*v	*v	*	*	*
4r	4r	4d#	.
=141	=141	=141	=141
4DD# 4D#	8d#L	4en	p
.	8c#X	.	.
2DD# 2D#	8B	4e#X	.
.	8d#	.	.
.	8A#	4f##X	.
.	8d#J	.	.
=142	=142	=142	=142
*^	*	*	*
4GG# 4B	4C##X	8enL	4g#	<
.	.	8B	.	.
2GG# 2B	4.C##	8A#	4a#	.
.	.	8e	.	.
.	.	8G#	4b	.
.	8D#	8d#J	.	.
*	*	*v	*v	*
*v	*v	*	*
=143	=143	=143
2.AA# 2.G# 2.c##X	8c##XL	.
.	8a#	.
.	8b	.
.	8B	.
.	8f#	.
.	8e#XJ	.
=144	=144	=144
*	*^	*
4r	4r	4e#	.
4DD# 4AA#	4F#	4d#	f
*	*v	*v	*
4F# 4A# 4d# 4f#	4dd# 4aa# 4ddd#	.
==	==	==
*-	*-	*-
!!!system-decoration: {(*)}
!!!filter: flipper -a
!!!RDF**dynam: > = dim.
!!!ENC: Bryan Jacob Bell
!!!END: November 2021 to April 2022
!!!PED: Günter Philipp
!!!PTL: Ausgewählte Klavierwerke (Edition Peters)
!!!URL-pdf: https://github.com/bel28kent/Mysterium/blob/main/reference_editions/op03.pdf
